assets/icons/qvision/no_backpack.svg

<svg width="24" height="24" viewBox="0 0 24 24" fill="none" xmlns="http://www.w3.org/2000/svg">
<g clip-path="url(#clip0_147_6233)">
<path d="M21.1901 21.19L2.81014 2.81L1.39014 4.22L4.15014 6.98C4.06014 7.31 4.00014 7.64 4.00014 8V20C4.00014 21.1 4.90014 22 6.00014 22H18.0001C18.3401 22 18.6501 21.91 18.9301 21.76L19.7801 22.61L21.1901 21.19ZM6.00014 14V12H9.17014L11.1701 14H6.00014ZM14.8301 12L6.98014 4.15C6.99014 4.15 6.99014 4.14 7.00014 4.14V2H10.0001V4H14.0001V2H17.0001V4.14C18.7201 4.59 20.0001 6.14 20.0001 8V17.17L18.0001 15.17V12H14.8301Z" fill="#323232"/>
</g>
<defs>
<clipPath id="clip0_147_6233">
<rect width="24" height="24" fill="white"/>
</clipPath>
</defs>
</svg>

<svg xmlns="http://www.w3.org/2000/svg" enable-background="new 0 0 24 24" height="24" viewBox="0 0 24 24" width="24"><rect fill="none" height="24" width="24" y="0"/><path d="M21.19,21.19L2.81,2.81L1.39,4.22l2.76,2.76C4.06,7.31,4,7.64,4,8v12c0,1.1,0.9,2,2,2h12c0.34,0,0.65-0.09,0.93-0.24 l0.85,0.85L21.19,21.19z M6,14v-2h3.17l2,2H6z M14.83,12L6.98,4.15c0.01,0,0.01-0.01,0.02-0.01V2h3v2h4V2h3v2.14 c1.72,0.45,3,2,3,3.86v9.17l-2-2V12H14.83z"/></svg>
